images/Cyprus_road_sign_SOS.svg

<svg xmlns="http://www.w3.org/2000/svg" width="201.542" height="173.167"><defs><clipPath clipPathUnits="userSpaceOnUse" id="a"><path d="M32.598 287.716h55.276v50.315H32.598v-50.315z"/></clipPath></defs><g clip-path="url(#a)" transform="matrix(3.97741 0 0 -3.97741 -137.473 1330.49)"><path d="M0 0a3.596 3.596 0 0 0-3.595-3.595h-43.382A3.596 3.596 0 0 0-50.572 0v36.248a3.596 3.596 0 0 0 3.595 3.595h43.382A3.596 3.596 0 0 0 0 36.248V0z" style="fill:none;stroke:#007ac2;stroke-width:.0996251;stroke-linecap:butt;stroke-linejoin:miter;stroke-miterlimit:10;stroke-opacity:1;stroke-dasharray:none" transform="translate(85.185 294.619)"/><path d="M0 0a3.595 3.595 0 0 0-3.595-3.595h-39.328A3.596 3.596 0 0 0-46.518 0v33.36a3.595 3.595 0 0 0 3.595 3.595h39.328A3.594 3.594 0 0 0 0 33.36V0z" style="fill:#007ac2;fill-opacity:1;fill-rule:evenodd;stroke:none" transform="translate(83.158 296.063)"/><path d="M0 0a3.596 3.596 0 0 0-3.595-3.595h-30.732A3.595 3.595 0 0 0-37.921 0v23.883a3.594 3.594 0 0 0 3.594 3.594h30.732A3.595 3.595 0 0 0 0 23.883V0z" style="fill:#fbb040;fill-opacity:1;fill-rule:evenodd;stroke:none" transform="translate(78.86 300.801)"/><path d="M0 0c0-.323-.061-.607-.182-.853a1.694 1.694 0 0 0-.512-.618 2.308 2.308 0 0 0-.784-.373 3.685 3.685 0 0 0-.981-.125c-.212 0-.415.017-.608.049a3.523 3.523 0 0 0-.519.121 2.568 2.568 0 0 0-.382.149.946.946 0 0 0-.223.143.45.45 0 0 0-.109.211 1.782 1.782 0 0 0-.038.423c0 .123.004.222.013.296a.736.736 0 0 0 .038.179c.017.044.038.074.064.089a.183.183 0 0 0 .095.022.47.47 0 0 0 .207-.079c.092-.053.205-.112.341-.175.136-.064.294-.123.475-.178.18-.056.385-.084.614-.084.145 0 .273.015.386.045.112.03.21.072.293.128a.54.54 0 0 1 .188.21.648.648 0 0 1 .063.293.486.486 0 0 1-.118.328 1.039 1.039 0 0 1-.312.239 3.656 3.656 0 0 1-.439.19c-.164.06-.332.126-.504.198a4.784 4.784 0 0 0-.503.248c-.163.094-.31.208-.439.345-.13.135-.234.299-.312.49a1.8 1.8 0 0 0-.118.688c0 .272.053.521.159.748.106.227.259.422.459.584.199.161.442.286.729.375.287.089.608.134.965.134.179 0 .352-.013.519-.038.168-.026.32-.058.456-.096s.25-.079.344-.124a1.14 1.14 0 0 0 .2-.115.3.3 0 0 0 .086-.096.412.412 0 0 0 .039-.114c.008-.045.016-.1.022-.166a3.518 3.518 0 0 0 0-.525.704.704 0 0 0-.032-.172c-.015-.043-.035-.071-.06-.086a.177.177 0 0 0-.09-.022.43.43 0 0 0-.178.067 3.567 3.567 0 0 1-.723.286 2.008 2.008 0 0 1-.545.067c-.144 0-.269-.015-.376-.044a.74.74 0 0 1-.261-.128.536.536 0 0 1-.203-.433c0-.132.04-.242.121-.332.08-.089.186-.167.318-.235.132-.068.281-.132.449-.191.168-.06.338-.124.51-.194a4.85 4.85 0 0 0 .509-.246 1.92 1.92 0 0 0 .45-.344c.131-.136.237-.298.318-.487C-.04.483 0 .259 0 0" style="fill:#000;fill-opacity:1;fill-rule:nonzero;stroke:none" transform="translate(49.82 307.709)"/><path d="M0 0c0 .281-.022.538-.067.774a1.84 1.84 0 0 1-.226.615c-.106.174-.248.31-.424.408-.176.097-.398.146-.665.146-.238 0-.446-.044-.625-.13a1.131 1.131 0 0 1-.439-.383 1.813 1.813 0 0 1-.258-.605A3.44 3.44 0 0 1-2.79.019c0-.28.023-.538.07-.774.047-.235.122-.44.226-.614.104-.175.245-.309.424-.405.178-.096.399-.143.662-.143.242 0 .453.043.631.13.178.087.325.213.439.379.115.166.2.366.255.602C-.028-.57 0-.302 0 0m1.65.064a4.36 4.36 0 0 0-.191-1.326 2.805 2.805 0 0 0-.58-1.031 2.573 2.573 0 0 0-.975-.669c-.39-.157-.847-.236-1.369-.236-.506 0-.945.071-1.319.211-.373.14-.683.343-.93.611a2.5 2.5 0 0 0-.547.988A4.55 4.55 0 0 0-4.44-.051c0 .485.065.927.194 1.329.13.401.324.744.583 1.031.259.287.583.509.972.666.388.157.844.235 1.366.235.51 0 .951-.069 1.325-.207.374-.138.683-.34.927-.608.244-.267.425-.597.544-.987.119-.391.179-.839.179-1.344" style="fill:#000;fill-opacity:1;fill-rule:nonzero;stroke:none" transform="translate(55.328 308.938)"/><path d="M0 0c0-.323-.06-.607-.182-.853a1.694 1.694 0 0 0-.512-.618 2.308 2.308 0 0 0-.784-.373 3.68 3.68 0 0 0-.981-.125c-.212 0-.415.017-.608.049a3.554 3.554 0 0 0-.519.121 2.568 2.568 0 0 0-.382.149.946.946 0 0 0-.223.143.45.45 0 0 0-.109.211 1.782 1.782 0 0 0-.038.423c0 .123.004.222.013.296a.736.736 0 0 0 .038.179c.017.044.038.074.064.089a.183.183 0 0 0 .095.022.47.47 0 0 0 .207-.079c.092-.053.205-.112.341-.175.136-.064.294-.123.475-.178.18-.056.385-.084.614-.084.145 0 .273.015.386.045.112.03.21.072.293.128a.54.54 0 0 1 .188.21.648.648 0 0 1 .063.293.49.49 0 0 1-.117.328 1.057 1.057 0 0 1-.313.239 3.656 3.656 0 0 1-.439.19c-.164.06-.331.126-.503.198-.172.072-.34.155-.504.248-.163.094-.31.208-.439.345-.13.135-.234.299-.312.49a1.8 1.8 0 0 0-.118.688c0 .272.053.521.159.748.106.227.259.422.459.584.199.161.443.286.729.375.287.089.608.134.965.134.179 0 .352-.013.519-.038.168-.026.32-.058.456-.096s.25-.079.344-.124a1.14 1.14 0 0 0 .2-.115.3.3 0 0 0 .086-.096.412.412 0 0 0 .039-.114c.008-.045.016-.1.022-.166a3.518 3.518 0 0 0 0-.525.704.704 0 0 0-.032-.172c-.015-.043-.035-.071-.06-.086a.177.177 0 0 0-.09-.022.43.43 0 0 0-.178.067 3.567 3.567 0 0 1-.723.286 2.008 2.008 0 0 1-.545.067 1.43 1.43 0 0 1-.375-.044.737.737 0 0 1-.262-.128.536.536 0 0 1-.203-.433c0-.132.04-.242.121-.332.08-.089.186-.167.318-.235.132-.068.281-.132.449-.191.168-.06.338-.124.51-.194a4.85 4.85 0 0 0 .509-.246 1.92 1.92 0 0 0 .45-.344c.131-.136.237-.298.318-.487C-.04.483 0 .259 0 0" style="fill:#000;fill-opacity:1;fill-rule:nonzero;stroke:none" transform="translate(62.454 307.709)"/><path d="M0 0c-.427 1.427-2.434 3.39-3.21 5.22-2.156 5.058-5.949 8.659-10.777 11.363-2.066 1.159-4.341 1.669-6.333 2.851-2.869 1.706-8.197-1.314-4.862-3.884 1.468-1.132 4.746-4.152 6.147-3.052 1.006.793.097 4.276 2.059 2.376 3.544-3.428 9.578-7.601 11.645-11.97-6.491.612-2.155-4.139-.613-6.544C-3.788-6.995.804-2.692 0 0c-.569 1.903.568-1.9 0 0" style="fill:#000;fill-opacity:1;fill-rule:evenodd;stroke:none" transform="translate(76.412 305.035)"/></g></svg>

<?xml version="1.0" encoding="UTF-8" standalone="no"?>
<!-- Created with Inkscape (http://www.inkscape.org/) -->

<svg
   xmlns:dc="http://purl.org/dc/elements/1.1/"
   xmlns:cc="http://creativecommons.org/ns#"
   xmlns:rdf="http://www.w3.org/1999/02/22-rdf-syntax-ns#"
   xmlns:svg="http://www.w3.org/2000/svg"
   xmlns="http://www.w3.org/2000/svg"
   xmlns:sodipodi="http://sodipodi.sourceforge.net/DTD/sodipodi-0.dtd"
   xmlns:inkscape="http://www.inkscape.org/namespaces/inkscape"
   width="201.54192"
   height="173.16705"
   id="svg3949"
   version="1.1"
   inkscape:version="0.47 r22583"
   sodipodi:docname="Cyprus road sign cul de sac ahead right.svg">
  <defs
     id="defs3951">
    <inkscape:perspective
       sodipodi:type="inkscape:persp3d"
       inkscape:vp_x="0 : 526.18109 : 1"
       inkscape:vp_y="0 : 1000 : 0"
       inkscape:vp_z="744.09448 : 526.18109 : 1"
       inkscape:persp3d-origin="372.04724 : 350.78739 : 1"
       id="perspective3957" />
    <inkscape:perspective
       id="perspective3866"
       inkscape:persp3d-origin="0.5 : 0.33333333 : 1"
       inkscape:vp_z="1 : 0.5 : 1"
       inkscape:vp_y="0 : 1000 : 0"
       inkscape:vp_x="0 : 0.5 : 1"
       sodipodi:type="inkscape:persp3d" />
    <clipPath
       clipPathUnits="userSpaceOnUse"
       id="clipPath3544">
      <path
         d="m 224.645,53.859 54.567,0 0,86.456 -54.567,0 0,-86.456 z"
         id="path3546" />
    </clipPath>
    <clipPath
       clipPathUnits="userSpaceOnUse"
       id="clipPath3524">
      <path
         d="M 0,0 311,0 311,595 0,595 0,0 z"
         id="path3526" />
    </clipPath>
    <inkscape:perspective
       id="perspective6206"
       inkscape:persp3d-origin="0.5 : 0.33333333 : 1"
       inkscape:vp_z="1 : 0.5 : 1"
       inkscape:vp_y="0 : 1000 : 0"
       inkscape:vp_x="0 : 0.5 : 1"
       sodipodi:type="inkscape:persp3d" />
    <clipPath
       clipPathUnits="userSpaceOnUse"
       id="clipPath4388">
      <path
         d="m 224.504,464.882 34.299,0 0,58.11 -34.299,0 0,-58.11 z"
         id="path4390" />
    </clipPath>
    <clipPath
       clipPathUnits="userSpaceOnUse"
       id="clipPath4374">
      <path
         d="M 0,0 311,0 311,595 0,595 0,0 z"
         id="path4376" />
    </clipPath>
    <inkscape:perspective
       id="perspective6324"
       inkscape:persp3d-origin="0.5 : 0.33333333 : 1"
       inkscape:vp_z="1 : 0.5 : 1"
       inkscape:vp_y="0 : 1000 : 0"
       inkscape:vp_x="0 : 0.5 : 1"
       sodipodi:type="inkscape:persp3d" />
    <clipPath
       clipPathUnits="userSpaceOnUse"
       id="clipPath4554">
      <path
         d="m 153.071,381.26 55.275,0 0,58.11 -55.275,0 0,-58.11 z"
         id="path4556" />
    </clipPath>
    <clipPath
       clipPathUnits="userSpaceOnUse"
       id="clipPath4528">
      <path
         d="m 92.693,381.26 55.275,0 0,58.11 -55.275,0 0,-58.11 z"
         id="path4530" />
    </clipPath>
    <clipPath
       clipPathUnits="userSpaceOnUse"
       id="clipPath4440">
      <path
         d="m 214.016,381.26 55.276,0 0,58.11 -55.276,0 0,-58.11 z"
         id="path4442" />
    </clipPath>
    <inkscape:perspective
       id="perspective6436"
       inkscape:persp3d-origin="0.5 : 0.33333333 : 1"
       inkscape:vp_z="1 : 0.5 : 1"
       inkscape:vp_y="0 : 1000 : 0"
       inkscape:vp_x="0 : 0.5 : 1"
       sodipodi:type="inkscape:persp3d" />
    <clipPath
       clipPathUnits="userSpaceOnUse"
       id="clipPath4554-4">
      <path
         d="m 153.071,381.26 55.275,0 0,58.11 -55.275,0 0,-58.11 z"
         id="path4556-0" />
    </clipPath>
    <clipPath
       clipPathUnits="userSpaceOnUse"
       id="clipPath4440-9">
      <path
         d="m 214.016,381.26 55.276,0 0,58.11 -55.276,0 0,-58.11 z"
         id="path4442-4" />
    </clipPath>
    <inkscape:perspective
       id="perspective6436-8"
       inkscape:persp3d-origin="0.5 : 0.33333333 : 1"
       inkscape:vp_z="1 : 0.5 : 1"
       inkscape:vp_y="0 : 1000 : 0"
       inkscape:vp_x="0 : 0.5 : 1"
       sodipodi:type="inkscape:persp3d" />
    <clipPath
       clipPathUnits="userSpaceOnUse"
       id="clipPath4554-8">
      <path
         d="m 153.071,381.26 55.275,0 0,58.11 -55.275,0 0,-58.11 z"
         id="path4556-2" />
    </clipPath>
    <clipPath
       clipPathUnits="userSpaceOnUse"
       id="clipPath4440-4">
      <path
         d="m 214.016,381.26 55.276,0 0,58.11 -55.276,0 0,-58.11 z"
         id="path4442-5" />
    </clipPath>
    <inkscape:perspective
       id="perspective6552"
       inkscape:persp3d-origin="0.5 : 0.33333333 : 1"
       inkscape:vp_z="1 : 0.5 : 1"
       inkscape:vp_y="0 : 1000 : 0"
       inkscape:vp_x="0 : 0.5 : 1"
       sodipodi:type="inkscape:persp3d" />
    <clipPath
       clipPathUnits="userSpaceOnUse"
       id="clipPath4492">
      <path
         d="m 32.598,287.716 55.276,0 0,50.315 -55.276,0 0,-50.315 z"
         id="path4494" />
    </clipPath>
  </defs>
  <sodipodi:namedview
     id="base"
     pagecolor="#ffffff"
     bordercolor="#666666"
     borderopacity="1.0"
     inkscape:pageopacity="0.0"
     inkscape:pageshadow="2"
     inkscape:zoom="0.83535156"
     inkscape:cx="212.46528"
     inkscape:cy="267.81853"
     inkscape:document-units="px"
     inkscape:current-layer="layer1"
     showgrid="false"
     inkscape:window-width="1600"
     inkscape:window-height="838"
     inkscape:window-x="-8"
     inkscape:window-y="-8"
     inkscape:window-maximized="1" />
  <metadata
     id="metadata3954">
    <rdf:RDF>
      <cc:Work
         rdf:about="">
        <dc:format>image/svg+xml</dc:format>
        <dc:type
           rdf:resource="http://purl.org/dc/dcmitype/StillImage" />
        <dc:title></dc:title>
      </cc:Work>
    </rdf:RDF>
  </metadata>
  <g
     inkscape:label="Livello 1"
     inkscape:groupmode="layer"
     id="layer1"
     transform="translate(-162.53472,-511.97575)">
    <g
       transform="matrix(3.9774117,0,0,-3.9774117,25.061916,1842.4654)"
       id="g4488">
      <g
         id="g4490"
         clip-path="url(#clipPath4492)">
        <g
           id="g4496"
           transform="translate(85.185196,294.61861)">
          <path
             d="m 0,0 c 0,-1.985 -1.61,-3.595 -3.595,-3.595 l -43.382,0 c -1.985,0 -3.595,1.61 -3.595,3.595 l 0,36.248 c 0,1.985 1.61,3.595 3.595,3.595 l 43.382,0 C -1.61,39.843 0,38.233 0,36.248 L 0,0 z"
             style="fill:none;stroke:#007ac2;stroke-width:0.0996251;stroke-linecap:butt;stroke-linejoin:miter;stroke-miterlimit:10;stroke-opacity:1;stroke-dasharray:none"
             id="path4498" />
        </g>
        <g
           id="g4500"
           transform="translate(83.158295,296.06281)">
          <path
             d="m 0,0 c 0,-1.985 -1.609,-3.595 -3.595,-3.595 l -39.328,0 c -1.985,0 -3.595,1.61 -3.595,3.595 l 0,33.36 c 0,1.986 1.61,3.595 3.595,3.595 l 39.328,0 C -1.609,36.955 0,35.346 0,33.36 L 0,0 z"
             style="fill:#007ac2;fill-opacity:1;fill-rule:evenodd;stroke:none"
             id="path4502" />
        </g>
        <g
           id="g4504"
           transform="translate(78.860001,300.8013)">
          <path
             d="m 0,0 c 0,-1.985 -1.61,-3.595 -3.595,-3.595 l -30.732,0 c -1.985,0 -3.594,1.61 -3.594,3.595 l 0,23.883 c 0,1.985 1.609,3.594 3.594,3.594 l 30.732,0 C -1.61,27.477 0,25.868 0,23.883 L 0,0 z"
             style="fill:#fbb040;fill-opacity:1;fill-rule:evenodd;stroke:none"
             id="path4506" />
        </g>
        <g
           id="g4508"
           transform="translate(49.819504,307.7086)">
          <path
             d="m 0,0 c 0,-0.323 -0.061,-0.607 -0.182,-0.853 -0.121,-0.247 -0.292,-0.453 -0.512,-0.618 -0.221,-0.166 -0.482,-0.29 -0.784,-0.373 -0.302,-0.083 -0.628,-0.125 -0.981,-0.125 -0.212,0 -0.415,0.017 -0.608,0.049 -0.193,0.031 -0.367,0.072 -0.519,0.121 -0.153,0.048 -0.281,0.098 -0.382,0.149 -0.102,0.051 -0.177,0.099 -0.223,0.143 -0.047,0.045 -0.083,0.115 -0.109,0.211 -0.025,0.095 -0.038,0.237 -0.038,0.423 0,0.123 0.004,0.222 0.013,0.296 0.008,0.075 0.021,0.134 0.038,0.179 0.017,0.044 0.038,0.074 0.064,0.089 0.025,0.015 0.057,0.022 0.095,0.022 0.047,0 0.116,-0.026 0.207,-0.079 0.092,-0.053 0.205,-0.112 0.341,-0.175 0.136,-0.064 0.294,-0.123 0.475,-0.178 0.18,-0.056 0.385,-0.084 0.614,-0.084 0.145,0 0.273,0.015 0.386,0.045 0.112,0.03 0.21,0.072 0.293,0.128 0.083,0.055 0.145,0.125 0.188,0.21 0.042,0.084 0.063,0.182 0.063,0.293 C -1.561,0 -1.6,0.109 -1.679,0.201 -1.757,0.292 -1.861,0.372 -1.991,0.44 -2.12,0.507 -2.267,0.571 -2.43,0.63 -2.594,0.69 -2.762,0.756 -2.934,0.828 -3.105,0.9 -3.273,0.983 -3.437,1.076 -3.6,1.17 -3.747,1.284 -3.876,1.421 c -0.13,0.135 -0.234,0.299 -0.312,0.49 -0.079,0.191 -0.118,0.421 -0.118,0.688 0,0.272 0.053,0.521 0.159,0.748 0.106,0.227 0.259,0.422 0.459,0.584 0.199,0.161 0.442,0.286 0.729,0.375 0.287,0.089 0.608,0.134 0.965,0.134 0.179,0 0.352,-0.013 0.519,-0.038 0.168,-0.026 0.32,-0.058 0.456,-0.096 0.136,-0.038 0.25,-0.079 0.344,-0.124 0.093,-0.045 0.16,-0.083 0.2,-0.115 0.041,-0.032 0.069,-0.063 0.086,-0.096 0.017,-0.031 0.03,-0.07 0.039,-0.114 0.008,-0.045 0.016,-0.1 0.022,-0.166 0.006,-0.066 0.009,-0.147 0.009,-0.245 0,-0.114 -0.003,-0.208 -0.009,-0.28 C -0.334,3.094 -0.345,3.036 -0.36,2.994 -0.375,2.951 -0.395,2.923 -0.42,2.908 -0.446,2.893 -0.476,2.886 -0.51,2.886 -0.548,2.886 -0.607,2.908 -0.688,2.953 -0.769,2.997 -0.87,3.045 -0.99,3.096 -1.112,3.147 -1.252,3.195 -1.411,3.239 -1.57,3.284 -1.752,3.306 -1.956,3.306 -2.1,3.306 -2.225,3.291 -2.332,3.262 -2.438,3.231 -2.525,3.189 -2.593,3.134 -2.661,3.079 -2.712,3.014 -2.746,2.94 -2.779,2.865 -2.796,2.785 -2.796,2.701 c 0,-0.132 0.04,-0.242 0.121,-0.332 C -2.595,2.28 -2.489,2.202 -2.357,2.134 -2.225,2.066 -2.076,2.002 -1.908,1.943 -1.74,1.883 -1.57,1.819 -1.398,1.749 -1.226,1.678 -1.056,1.596 -0.889,1.503 -0.721,1.41 -0.571,1.295 -0.439,1.159 -0.308,1.023 -0.202,0.861 -0.121,0.672 -0.04,0.483 0,0.259 0,0"
             style="fill:#000000;fill-opacity:1;fill-rule:nonzero;stroke:none"
             id="path4510" />
        </g>
        <g
           id="g4512"
           transform="translate(55.328094,308.9379)">
          <path
             d="m 0,0 c 0,0.281 -0.022,0.538 -0.067,0.774 -0.045,0.236 -0.12,0.44 -0.226,0.615 -0.106,0.174 -0.248,0.31 -0.424,0.408 -0.176,0.097 -0.398,0.146 -0.665,0.146 -0.238,0 -0.446,-0.044 -0.625,-0.13 C -2.185,1.725 -2.331,1.598 -2.446,1.43 -2.561,1.262 -2.647,1.061 -2.704,0.825 -2.761,0.589 -2.79,0.321 -2.79,0.019 c 0,-0.28 0.023,-0.538 0.07,-0.774 0.047,-0.235 0.122,-0.44 0.226,-0.614 0.104,-0.175 0.245,-0.309 0.424,-0.405 0.178,-0.096 0.399,-0.143 0.662,-0.143 0.242,0 0.453,0.043 0.631,0.13 0.178,0.087 0.325,0.213 0.439,0.379 0.115,0.166 0.2,0.366 0.255,0.602 C -0.028,-0.57 0,-0.302 0,0 M 1.65,0.064 C 1.65,-0.421 1.586,-0.862 1.459,-1.262 1.331,-1.66 1.138,-2.005 0.879,-2.293 0.62,-2.582 0.295,-2.805 -0.096,-2.962 c -0.39,-0.157 -0.847,-0.236 -1.369,-0.236 -0.506,0 -0.945,0.071 -1.319,0.211 -0.373,0.14 -0.683,0.343 -0.93,0.611 -0.246,0.267 -0.429,0.597 -0.547,0.988 -0.12,0.39 -0.179,0.836 -0.179,1.337 0,0.485 0.065,0.927 0.194,1.329 0.13,0.401 0.324,0.744 0.583,1.031 0.259,0.287 0.583,0.509 0.972,0.666 0.388,0.157 0.844,0.235 1.366,0.235 C -0.815,3.21 -0.374,3.141 0,3.003 0.374,2.865 0.683,2.663 0.927,2.395 1.171,2.128 1.352,1.798 1.471,1.408 1.59,1.017 1.65,0.569 1.65,0.064"
             style="fill:#000000;fill-opacity:1;fill-rule:nonzero;stroke:none"
             id="path4514" />
        </g>
        <g
           id="g4516"
           transform="translate(62.454498,307.7086)">
          <path
             d="m 0,0 c 0,-0.323 -0.06,-0.607 -0.182,-0.853 -0.121,-0.247 -0.292,-0.453 -0.512,-0.618 -0.221,-0.166 -0.482,-0.29 -0.784,-0.373 -0.301,-0.083 -0.628,-0.125 -0.981,-0.125 -0.212,0 -0.415,0.017 -0.608,0.049 -0.193,0.031 -0.366,0.072 -0.519,0.121 -0.153,0.048 -0.281,0.098 -0.382,0.149 -0.102,0.051 -0.177,0.099 -0.223,0.143 -0.047,0.045 -0.083,0.115 -0.109,0.211 -0.025,0.095 -0.038,0.237 -0.038,0.423 0,0.123 0.004,0.222 0.013,0.296 0.008,0.075 0.021,0.134 0.038,0.179 0.017,0.044 0.038,0.074 0.064,0.089 0.025,0.015 0.057,0.022 0.095,0.022 0.047,0 0.116,-0.026 0.207,-0.079 0.092,-0.053 0.205,-0.112 0.341,-0.175 0.136,-0.064 0.294,-0.123 0.475,-0.178 0.18,-0.056 0.385,-0.084 0.614,-0.084 0.145,0 0.273,0.015 0.386,0.045 0.112,0.03 0.21,0.072 0.293,0.128 0.083,0.055 0.145,0.125 0.188,0.21 0.042,0.084 0.063,0.182 0.063,0.293 C -1.561,0 -1.6,0.109 -1.678,0.201 -1.757,0.292 -1.861,0.372 -1.991,0.44 -2.12,0.507 -2.267,0.571 -2.43,0.63 -2.594,0.69 -2.761,0.756 -2.933,0.828 -3.105,0.9 -3.273,0.983 -3.437,1.076 -3.6,1.17 -3.747,1.284 -3.876,1.421 c -0.13,0.135 -0.234,0.299 -0.312,0.49 -0.079,0.191 -0.118,0.421 -0.118,0.688 0,0.272 0.053,0.521 0.159,0.748 0.106,0.227 0.259,0.422 0.459,0.584 0.199,0.161 0.443,0.286 0.729,0.375 0.287,0.089 0.608,0.134 0.965,0.134 0.179,0 0.352,-0.013 0.519,-0.038 0.168,-0.026 0.32,-0.058 0.456,-0.096 0.136,-0.038 0.25,-0.079 0.344,-0.124 0.093,-0.045 0.16,-0.083 0.2,-0.115 0.041,-0.032 0.069,-0.063 0.086,-0.096 0.017,-0.031 0.03,-0.07 0.039,-0.114 0.008,-0.045 0.016,-0.1 0.022,-0.166 0.006,-0.066 0.009,-0.147 0.009,-0.245 0,-0.114 -0.003,-0.208 -0.009,-0.28 C -0.334,3.094 -0.345,3.036 -0.36,2.994 -0.375,2.951 -0.395,2.923 -0.42,2.908 -0.446,2.893 -0.476,2.886 -0.51,2.886 -0.548,2.886 -0.607,2.908 -0.688,2.953 -0.769,2.997 -0.87,3.045 -0.99,3.096 -1.111,3.147 -1.252,3.195 -1.411,3.239 -1.57,3.284 -1.752,3.306 -1.956,3.306 -2.1,3.306 -2.225,3.291 -2.331,3.262 -2.438,3.231 -2.525,3.189 -2.593,3.134 -2.661,3.079 -2.712,3.014 -2.746,2.94 -2.779,2.865 -2.796,2.785 -2.796,2.701 c 0,-0.132 0.04,-0.242 0.121,-0.332 C -2.595,2.28 -2.489,2.202 -2.357,2.134 -2.225,2.066 -2.076,2.002 -1.908,1.943 -1.74,1.883 -1.57,1.819 -1.398,1.749 -1.226,1.678 -1.056,1.596 -0.889,1.503 -0.721,1.41 -0.571,1.295 -0.439,1.159 -0.308,1.023 -0.202,0.861 -0.121,0.672 -0.04,0.483 0,0.259 0,0"
             style="fill:#000000;fill-opacity:1;fill-rule:nonzero;stroke:none"
             id="path4518" />
        </g>
        <g
           id="g4520"
           transform="translate(76.412003,305.0352)">
          <path
             d="m 0,0 c -0.427,1.427 -2.434,3.39 -3.21,5.22 -2.156,5.058 -5.949,8.659 -10.777,11.363 -2.066,1.159 -4.341,1.669 -6.333,2.851 -2.869,1.706 -8.197,-1.314 -4.862,-3.884 1.468,-1.132 4.746,-4.152 6.147,-3.052 1.006,0.793 0.097,4.276 2.059,2.376 3.544,-3.428 9.578,-7.601 11.645,-11.97 C -11.822,3.516 -7.486,-1.235 -5.944,-3.64 -3.788,-6.995 0.804,-2.692 0,0 -0.569,1.903 0.568,-1.9 0,0"
             style="fill:#000000;fill-opacity:1;fill-rule:evenodd;stroke:none"
             id="path4522" />
        </g>
      </g>
    </g>
  </g>
</svg>
